X: 100335
T: MR. MARTON'S HORNPIPE
R: hornpipe, reel
B: K\"ohler's Violin Repository, v.3, 1885 p.235 #1
F: http://www.archive.org/details/klersviolinrepos03rugg
Z: 2012 John Chambers <jc:trillian.mit.edu>
N: This tune is better known as Roxbury Castle.
M: C|
L: 1/8
K: A
(ucB) |\
A2Ac (ec)Ac | d2df (ec)Ac | d2fd c2ec | B2B2 B2(cB) |
AEAc ecAc | d2df (ec)Ac | fgaf ecdB | A2A2 A2 :||: (fg) |
aece Aece | aece Aece | dfdf cece | B2B2 B2(cB) |
AEAc ecAc | d2df (ec)Ac | fgaf ecdB | A2A2 A2 :|

%%sep 2 1 500

